src/images/icons/thumb_down_outlined.svg

<svg xmlns="http://www.w3.org/2000/svg" xmlns:xlink="http://www.w3.org/1999/xlink" viewBox="0 0 512 512">
  <title>
    thumb down outlined
  </title>
  <path fill-rule="evenodd" clip-rule="evenodd" d="M170.667 64V319.979L227.989 458.133C236.459 477.888 255.829 490.667 277.333 490.667V490.667C300.864 490.667 320 471.531 320 448V448V319.979H417.301C436.544 319.979 454.549 311.467 466.773 296.576V296.576C478.997 281.685 483.819 262.315 480.043 243.456V243.456L429.675 98.2827C425.728 78.4213 408.107 64 387.84 64V64H170.667ZM267.201 441.344L213.313 319.979V106.688H387.841L438.209 251.819C439.489 258.112 437.846 264.555 433.771 269.525V269.525C429.718 274.496 423.702 277.333 417.302 277.333V277.333H277.334V448C272.918 448 268.929 445.355 267.201 441.344V441.344ZM64.0001 64C52.2241 64 42.6667 73.5573 42.6667 85.3333V85.3333V298.688C42.6667 310.443 52.2241 319.979 64.0001 319.979V319.979H128V64H64.0001Z"/>
</svg>

<svg xmlns="http://www.w3.org/2000/svg" xmlns:xlink="http://www.w3.org/1999/xlink" viewBox="0 0 512 512">
  <title>
    thumb down outlined
  </title>
  <path d="M170.667 64v255.979l57.322 138.154a53.637 53.637 0 0049.344 32.534C300.864 490.667 320 471.531 320 448V319.979h97.301c19.243 0 37.248-8.512 49.472-23.403 12.224-14.891 17.046-34.261 13.27-53.12L429.675 98.283C425.728 78.42 408.107 64 387.84 64H170.667zm96.534 377.344l-53.888-121.365V106.688h174.528l50.368 145.131c1.28 6.293-.363 12.736-4.438 17.706-4.053 4.971-10.069 7.808-16.469 7.808H277.334V448a11.053 11.053 0 01-10.133-6.656zM64.001 64c-11.777 0-21.334 9.557-21.334 21.333v213.355c0 11.755 9.557 21.291 21.333 21.291h64V64H64z"/>
</svg>
